web/images/linkedin_logo_black.svg

<svg xmlns="http://www.w3.org/2000/svg" width="24" height="24" viewBox="0 0 24 24">
<path fill="#FFF" d="M19 0h-14c-2.761 0-5 2.239-5 5v14c0 2.761 2.239 5 5 5h14c2.762 0 5-2.239 5-5v-14c0-2.761-2.238-5-5-5zm-11 19h-3v-11h3v11zm-1.5-12.268c-.966 0-1.75-.79-1.75-1.764s.784-1.764 1.75-1.764 1.75.79 1.75 1.764-.783 1.764-1.75 1.764zm13.5 12.268h-3v-5.604c0-3.368-4-3.113-4 0v5.604h-3v-11h3v1.765c1.396-2.586 7-2.777 7 2.476v6.759z"/>
</svg>

<svg xmlns="http://www.w3.org/2000/svg" width="24" height="24"><path fill="#000" d="M19 0H5a5 5 0 0 0-5 5v14a5 5 0 0 0 5 5h14a5 5 0 0 0 5-5V5a5 5 0 0 0-5-5zM8 19H5V8h3v11zM6.5 6.7c-1 0-1.8-.8-1.8-1.7s.8-1.8 1.8-1.8S8.3 4 8.3 5s-.8 1.7-1.8 1.7zM20 19h-3v-5.6c0-3.4-4-3.1-4 0V19h-3V8h3v1.8c1.4-2.6 7-2.8 7 2.4V19z"/></svg>
